X:1661
T:Drucd an Ceo
O:england
M:4/4
L:1/4
Q:60
C:Traditional Celtic
R:Slow
B:FOUR WINDS MUSIC COLLECTION
K:G
B/2d/2 |: e d/2B/2 e d/2B/2 | A B D E/2F/2 |
G/2B/2 A/2G/2  E>  D |1 E2 z B/2d/2 :|2 E2 z F ||
G> B d c/2B/2 | A G/2A/2 B G/2A/2 |
B> gf/2e/2 d | B/2d/2  e> z B/2d/2 | e d/2B/2 e d/2B/2 |
A B D E/2F/2 | G/2B/2 A/2G/2 E> D |
E2 z F | G> B d c/2B/2 | A G/2A/2 B G/2A/2 |
B> gf/2e/2 d | B/2d/2 e>  z B/2d/2 | e d/2B/2 e d/2B/2 |
A B D E/2F/2 | G/2B/2 A/2G/2 E> D | E2-E |]
W:Arrangement: Patrick O. Young, 1996.
%  ABC2Win Version 2.1 1/27/99


